X: 12271
T: Fairy Child
R: jig
M: 6/8
K: Dmajor
M:6/8
|:EB{c/}B ABd|{c/}BAG FGE|{A/}EB{c/}B ABd|Bed JB2z|
EB{c/}B ABd|{c/}BAG FGA|Bed {c/}BAG|ABG E2z:|
|:{a/}fed Be{a/}e|dBA Bde|{a/}fed Be{a/}e|dBA JB2z|
{a/}fed Be{a/}e|d=cB {c/}AGA|Bed {c/}BAG|ABGE2z:|
|:Be{a/}e fgb|afa gfd|B ze gab|afa Jg2z|
bag (3efga|g{a/}fe dBA|Bed {c/}B{c/}AG|ABG E2z:|
|:{a/}gfe def|{a/}edB def|{a/}gfe dz f|{a/}edB d2z|
{a/}gfe def|{a/}edB AGA|Bed {c/}BAG|ABGE2z:|

